dist/assets/img/first/icon4.svg

<svg width="55" height="55" viewBox="0 0 55 55" fill="none" xmlns="http://www.w3.org/2000/svg">
<g clip-path="url(#clip0)">
<path d="M51.6789 15.6949L41.7524 5.74951V45.6036H55.037V23.77C55.037 20.7384 53.8281 17.832 51.6789 15.6949Z" fill="#FFB782"/>
<path d="M7.75883 38.3425L0.254606 18.8614C-0.498576 16.9058 0.475768 14.7091 2.43244 13.9556L37.8524 0.312224C39.808 -0.440959 42.0047 0.533385 42.7579 2.49006L50.2621 21.9711C51.0153 23.9267 50.0409 26.1234 48.0842 26.877L12.6654 40.5203C10.7087 41.2735 8.5131 40.2981 7.75883 38.3425Z" fill="#DE4C3C"/>
<path d="M45.4623 9.50708L2.99316 25.9689L5.82105 33.3097L48.292 16.8555L45.4623 9.50708Z" fill="#7A4930"/>
<path d="M0.000976562 24.7275V3.8516C0.000976562 1.75547 1.70054 0.0559082 3.79667 0.0559082H41.7529C43.849 0.0559082 45.5486 1.75547 45.5486 3.8516V24.7275C45.5486 26.8237 43.849 28.5232 41.7529 28.5232H3.79667C1.70054 28.5232 0.000976562 26.8237 0.000976562 24.7275Z" fill="#4398D1"/>
<path d="M41.7521 0.0559082H37.7193L9.25195 28.5232H41.7521C43.8483 28.5232 45.5478 26.8237 45.5478 24.7275V3.8516C45.5478 1.75547 43.8483 0.0559082 41.7521 0.0559082Z" fill="#3E8CC7"/>
<path d="M3.79639 15.2383H7.59208V17.1361H3.79639V15.2383Z" fill="#5EB3D1"/>
<path d="M3.79639 20.9319H7.59208V22.8297H3.79639V20.9319Z" fill="#5EB3D1"/>
<path d="M20.8765 20.9319H24.6722V22.8297H20.8765V20.9319Z" fill="#5EB3D1"/>
<path d="M9.48975 15.2383H13.2851V17.1361H9.48975V15.2383Z" fill="#5EB3D1"/>
<path d="M15.1831 15.2383H18.9788V17.1361H15.1831V15.2383Z" fill="#5EB3D1"/>
<path d="M20.8765 15.2383H24.6722V17.1361H20.8765V15.2383Z" fill="#5EB3D1"/>
<path d="M38.9053 3.85156H40.8031V6.69833H38.9053V3.85156Z" fill="#5EB3D1"/>
<path d="M35.1099 3.85156H37.0077V6.69833H35.1099V3.85156Z" fill="#5EB3D1"/>
<path d="M31.314 3.85156H33.2118V6.69833H31.314V3.85156Z" fill="#5EB3D1"/>
<path d="M27.519 3.85156H29.4165V6.69833H27.519V3.85156Z" fill="#5EB3D1"/>
<path d="M37.9565 45.6035H55.0368V55.0924H37.9565V45.6035Z" fill="#88B337"/>
<path d="M35.1719 17.1977C33.5624 15.594 30.9579 15.5988 29.3542 17.2083C27.8035 18.7644 27.7498 21.2647 29.2318 22.8866L37.0081 31.3698C34.6708 35.4604 34.7707 40.5046 37.267 44.4997L37.957 45.6033H50.2926V32.3188L35.1719 17.1977Z" fill="#FFB782"/>
<path d="M40.8032 48.4502H42.7011V50.348H40.8032V48.4502Z" fill="#6B962A"/>
<path d="M3.79639 9.9246V5.36991C3.79639 4.53102 4.47585 3.85156 5.31474 3.85156H9.86942C10.7083 3.85156 11.3874 4.53102 11.3874 5.36991V9.9246C11.3874 10.7635 10.7083 11.4429 9.86942 11.4429H5.31474C4.47585 11.4429 3.79639 10.7635 3.79639 9.9246Z" fill="#FDB62F"/>
<path d="M3.79639 6.69849H6.64316V8.59633H3.79639V6.69849Z" fill="#FD7B2F"/>
<path d="M8.54053 6.69849H11.3869V8.59633H8.54053V6.69849Z" fill="#FD7B2F"/>
<path d="M49.3437 32.319C49.0924 32.319 48.8505 32.2192 48.6729 32.0409L44.8772 28.2452C44.513 27.8686 44.5235 27.2679 44.9012 26.9033C45.2694 26.5485 45.8519 26.5485 46.2191 26.9033L50.0148 30.699C50.3848 31.0701 50.3848 31.6708 50.0148 32.0409C49.8361 32.2192 49.5953 32.319 49.3437 32.319Z" fill="#F2A46F"/>
</g>
<defs>
<clipPath id="clip0">
<rect width="55" height="55" fill="white"/>
</clipPath>
</defs>
</svg>

<svg width="55" height="55" fill="none" xmlns="http://www.w3.org/2000/svg"><g clip-path="url(#clip0)"><path d="M51.679 15.695L41.752 5.75v39.854h13.285V23.77c0-3.032-1.209-5.938-3.358-8.075z" fill="#FFB782"/><path d="M7.759 38.343L.255 18.86a3.795 3.795 0 012.177-4.905L37.852.312a3.795 3.795 0 014.906 2.178l7.504 19.481a3.795 3.795 0 01-2.178 4.906L12.665 40.52a3.797 3.797 0 01-4.906-2.178z" fill="#DE4C3C"/><path d="M45.462 9.507L2.993 25.97l2.828 7.34 42.471-16.453-2.83-7.349z" fill="#7A4930"/><path d="M.001 24.727V3.852c0-2.097 1.7-3.796 3.796-3.796h37.956c2.096 0 3.796 1.7 3.796 3.796v20.875c0 2.097-1.7 3.796-3.796 3.796H3.797A3.796 3.796 0 010 24.727z" fill="#4398D1"/><path d="M41.752.056H37.72L9.252 28.523h32.5c2.096 0 3.796-1.7 3.796-3.796V3.852c0-2.097-1.7-3.796-3.796-3.796z" fill="#3E8CC7"/><path d="M3.796 15.238h3.796v1.898H3.796v-1.898zm0 5.694h3.796v1.898H3.796v-1.898zm17.081 0h3.795v1.898h-3.796v-1.898zM9.49 15.238h3.795v1.898H9.49v-1.898zm5.693 0h3.796v1.898h-3.796v-1.898zm5.694 0h3.795v1.898h-3.796v-1.898zM38.905 3.852h1.898v2.846h-1.898V3.852zm-3.795 0h1.898v2.846H35.11V3.852zm-3.796 0h1.898v2.846h-1.898V3.852zm-3.795 0h1.898v2.846h-1.898V3.852z" fill="#5EB3D1"/><path d="M37.956 45.603h17.08v9.49h-17.08v-9.49z" fill="#88B337"/><path d="M35.172 17.198a4.114 4.114 0 00-5.94 5.689l7.776 8.483a12.797 12.797 0 00.259 13.13l.69 1.103h12.336V32.32L35.172 17.198z" fill="#FFB782"/><path d="M40.803 48.45h1.898v1.898h-1.898V48.45z" fill="#6B962A"/><path d="M3.796 9.925V5.37c0-.839.68-1.518 1.519-1.518h4.554c.84 0 1.518.679 1.518 1.518v4.555c0 .838-.679 1.518-1.518 1.518H5.315c-.84 0-1.519-.68-1.519-1.518z" fill="#FDB62F"/><path d="M3.796 6.698h2.847v1.898H3.796V6.698zm4.744 0h2.847v1.898H8.54V6.698z" fill="#FD7B2F"/><path d="M49.344 32.319a.947.947 0 01-.671-.278l-3.796-3.796a.948.948 0 011.342-1.342l3.796 3.796a.95.95 0 01-.671 1.62z" fill="#F2A46F"/></g><defs><clipPath id="clip0"><path fill="#fff" d="M0 0h55v55H0z"/></clipPath></defs></svg>
